images/ico/vk.svg

<svg width="25" height="14" viewBox="0 0 25 14" fill="none" xmlns="http://www.w3.org/2000/svg">
<path fill-rule="evenodd" clip-rule="evenodd" d="M23.9498 0.948C24.1158 0.402 23.9498 0 23.1548 0H20.5298C19.8618 0 19.5538 0.347 19.3868 0.73C19.3868 0.73 18.0518 3.926 16.1608 6.002C15.5488 6.604 15.2708 6.795 14.9368 6.795C14.7698 6.795 14.5188 6.604 14.5188 6.057V0.948C14.5188 0.292 14.3348 0 13.7788 0H9.65076C9.23376 0 8.98276 0.304 8.98276 0.593C8.98276 1.214 9.92876 1.358 10.0258 3.106V6.904C10.0258 7.737 9.87276 7.888 9.53876 7.888C8.64876 7.888 6.48376 4.677 5.19876 1.003C4.94976 0.288 4.69776 0 4.02676 0H1.39976C0.649756 0 0.499756 0.347 0.499756 0.73C0.499756 1.412 1.38976 4.8 4.64476 9.281C6.81476 12.341 9.86976 14 12.6528 14C14.3218 14 14.5278 13.632 14.5278 12.997V10.684C14.5278 9.947 14.6858 9.8 15.2148 9.8C15.6048 9.8 16.2718 9.992 17.8298 11.467C19.6098 13.216 19.9028 14 20.9048 14H23.5298C24.2798 14 24.6558 13.632 24.4398 12.904C24.2018 12.18 23.3518 11.129 22.2248 9.882C21.6128 9.172 20.6948 8.407 20.4158 8.024C20.0268 7.533 20.1378 7.314 20.4158 6.877C20.4158 6.877 23.6158 2.451 23.9488 0.948H23.9498Z" fill="#83B3D3"/>
</svg>

<svg width="25" height="14" fill="none" xmlns="http://www.w3.org/2000/svg"><path fill-rule="evenodd" clip-rule="evenodd" d="M23.95.948c.166-.546 0-.948-.795-.948H20.53c-.668 0-.976.347-1.143.73 0 0-1.335 3.196-3.226 5.272-.612.602-.89.793-1.224.793-.167 0-.418-.191-.418-.738V.948c0-.656-.184-.948-.74-.948H9.65c-.417 0-.668.304-.668.593 0 .621.946.765 1.043 2.513v3.798c0 .833-.153.984-.487.984-.89 0-3.055-3.211-4.34-6.885C4.949.288 4.698 0 4.027 0H1.4C.65 0 .5.347.5.73c0 .682.89 4.07 4.145 8.551C6.815 12.341 9.87 14 12.653 14c1.669 0 1.875-.368 1.875-1.003v-2.313c0-.737.158-.884.687-.884.39 0 1.057.192 2.615 1.667C19.61 13.216 19.903 14 20.905 14h2.625c.75 0 1.126-.368.91-1.096-.238-.724-1.088-1.775-2.215-3.022-.612-.71-1.53-1.475-1.81-1.858-.388-.491-.277-.71 0-1.147 0 0 3.2-4.426 3.534-5.929Z" fill="#83B3D3"/></svg>
